symbols/web/crop_free/materialsymbolsoutlined/crop_free_wght100grad200_48px.svg

<svg xmlns="http://www.w3.org/2000/svg" height="48" width="48"><path d="M7.8 17.85v-6.7q0-1.4 1-2.375 1-.975 2.35-.975h6.7v1.75h-6.7q-.6 0-1.1.5-.5.5-.5 1.1v6.7ZM17.85 40.2h-6.7q-1.35 0-2.35-1t-1-2.35v-6.7h1.75v6.7q0 .6.5 1.1.5.5 1.1.5h6.7Zm12.3 0v-1.75h6.7q.6 0 1.1-.5.5-.5.5-1.1v-6.7h1.75v6.7q0 1.35-.975 2.35t-2.375 1Zm8.3-22.35v-6.7q0-.6-.5-1.1-.5-.5-1.1-.5h-6.7V7.8h6.7q1.4 0 2.375.975.975.975.975 2.375v6.7Z"/></svg>

<svg xmlns="http://www.w3.org/2000/svg" height="48" width="48"><path d="M7.8 17.85V11.15Q7.8 9.75 8.8 8.775Q9.8 7.8 11.15 7.8H17.85V9.55H11.15Q10.55 9.55 10.05 10.05Q9.55 10.55 9.55 11.15V17.85ZM17.85 40.2H11.15Q9.8 40.2 8.8 39.2Q7.8 38.2 7.8 36.85V30.15H9.55V36.85Q9.55 37.45 10.05 37.95Q10.55 38.45 11.15 38.45H17.85ZM30.15 40.2V38.45H36.85Q37.45 38.45 37.95 37.95Q38.45 37.45 38.45 36.85V30.15H40.2V36.85Q40.2 38.2 39.225 39.2Q38.25 40.2 36.85 40.2ZM38.45 17.85V11.15Q38.45 10.55 37.95 10.05Q37.45 9.55 36.85 9.55H30.15V7.8H36.85Q38.25 7.8 39.225 8.775Q40.2 9.75 40.2 11.15V17.85Z"/></svg>
